svgs/light/face-explode.svg

<svg xmlns="http://www.w3.org/2000/svg" viewBox="0 0 512 512"><!--! Font Awesome Pro 6.1.1 by @fontawesome - https://fontawesome.com License - https://fontawesome.com/license (Commercial License) Copyright 2022 Fonticons, Inc. --><path d="M267.4 44.01C264.4 47.08 260.3 48.81 256 48.81C251.7 48.81 247.6 47.08 244.6 44.01C237.3 36.58 227.2 31.1 216 31.1C193.9 31.1 176 49.91 176 71.1V76.22C176 82.53 172.3 88.25 166.5 90.83C160.8 93.4 154 92.35 149.3 88.14C143.7 83.07 136.2 80 128 80C110.3 80 96 94.33 96 112C96 129.7 110.3 144 128 144H240C248.8 144 256 151.2 256 160C256 168.8 248.8 176 240 176H221.3C223 181 224 186.4 224 192V208C224 216.8 216.8 224 208 224C199.2 224 192 216.8 192 208V192C192 183.2 184.8 176 176 176H128C92.65 176 64 147.3 64 112C64 76.65 92.65 48 128 48C134.7 48 141.1 49.02 147.1 50.91C156.2 21.44 183.6 0 216 0C230.8 0 244.6 4.474 256 12.13C267.4 4.474 281.2 0 296 0C328.4 0 355.8 21.44 364.9 50.91C370.9 49.02 377.3 48 384 48C419.3 48 448 76.65 448 112C448 147.3 419.3 176 384 176H336C327.2 176 320 183.2 320 192V208C320 216.8 312.8 224 304 224C295.2 224 288 216.8 288 208V192C288 165.5 309.5 144 336 144H384C401.7 144 416 129.7 416 112C416 94.33 401.7 80 384 80C375.8 80 368.3 83.07 362.7 88.14C357.1 92.35 351.2 93.4 345.5 90.83C339.7 88.25 336 82.53 336 76.22V71.1C336 49.91 318.1 31.1 296 31.1C284.8 31.1 274.7 36.58 267.4 44.01V44.01zM152.4 336C152.4 322.7 163.1 311.1 176.4 311.1C189.6 311.1 200.4 322.7 200.4 336C200.4 349.3 189.6 360 176.4 360C163.1 360 152.4 349.3 152.4 336zM360.4 336C360.4 349.3 349.6 360 336.4 360C323.1 360 312.4 349.3 312.4 336C312.4 322.7 323.1 311.1 336.4 311.1C349.6 311.1 360.4 322.7 360.4 336zM320 416V421.3C320 436.1 308.1 448 293.3 448H218.7C203.9 448 192 436.1 192 421.3V416C192 380.7 220.7 352 256 352C291.3 352 320 380.7 320 416H320zM288 416C288 398.3 273.7 384 256 384C238.3 384 224 398.3 224 416H288zM32.04 260.3C35.15 259.7 38.17 258.5 40.99 256.9L69.64 240.8C79.39 235.3 91.28 235.3 101 240.8L126.5 255.2C136.3 260.7 148.2 260.7 157.9 255.2L183.4 240.8C193.2 235.3 205.1 235.3 214.8 240.8L240.3 255.2C250.1 260.7 261.9 260.7 271.7 255.2L297.2 240.8C306.9 235.3 318.8 235.3 328.6 240.8L354.1 255.2C363.8 260.7 375.7 260.7 385.5 255.2L410.1 240.8C420.7 235.3 432.6 235.3 442.4 240.8L471 256.9C473.8 258.5 476.9 259.7 479.1 260.3C485.6 261.6 491.6 261.2 497.2 259.3L511.1 254.2L512 255.1C512 267.1 511.3 278 509.9 288.7C493.9 414.7 386.3 512 256 512C125.7 512 18.15 414.7 2.074 288.7C.7053 278 0 267.1 0 255.1L.0064 254.2L14.84 259.3C20.43 261.2 26.38 261.6 32.04 260.3V260.3zM56.68 284.8C49.87 288.7 42.49 291.2 34.93 292.3C52.29 398.8 144.7 480 256 480C367.3 480 459.7 398.8 477.1 292.3C469.5 291.2 462.1 288.7 455.3 284.8L426.7 268.7L401.2 283.1C381.7 294 357.9 294 338.4 283.1L312.9 268.7L287.4 283.1C267.9 294 244.1 294 224.6 283.1L199.1 268.7L173.6 283.1C154.1 294 130.3 294 110.8 283.1L85.33 268.7L56.68 284.8z"/></svg>

<svg xmlns="http://www.w3.org/2000/svg" viewBox="0 0 512 512"><!--! Font Awesome Pro 6.5.1 by @fontawesome - https://fontawesome.com License - https://fontawesome.com/license (Commercial License) Copyright 2023 Fonticons, Inc. --><path d="M296 32c-11.2 0-21.3 4.6-28.6 12c-3 3.1-7.1 4.8-11.4 4.8s-8.4-1.7-11.4-4.8c-7.3-7.4-17.4-12-28.6-12c-22.1 0-40 17.9-40 40v4.2c0 6.3-3.7 12-9.5 14.6s-12.5 1.5-17.2-2.7C143.7 83.1 136.2 80 128 80c-17.7 0-32 14.3-32 32s14.3 32 32 32h32 16 64c8.8 0 16 7.2 16 16s-7.2 16-16 16H221.3c1.8 5 2.7 10.4 2.7 16v16c0 8.8-7.2 16-16 16s-16-7.2-16-16V192c0-8.8-7.2-16-16-16H160 128c-35.3 0-64-28.7-64-64s28.7-64 64-64c6.7 0 13.1 1 19.1 2.9C156.2 21.4 183.6 0 216 0c14.8 0 28.6 4.5 40 12.1C267.4 4.5 281.2 0 296 0c32.4 0 59.8 21.4 68.9 50.9c6-1.9 12.5-2.9 19.1-2.9c35.3 0 64 28.7 64 64s-28.7 64-64 64H336c-8.8 0-16 7.2-16 16v16c0 8.8-7.2 16-16 16s-16-7.2-16-16V192c0-26.5 21.5-48 48-48h48c17.7 0 32-14.3 32-32s-14.3-32-32-32c-8.2 0-15.7 3.1-21.3 8.1c-4.7 4.2-11.4 5.3-17.2 2.7s-9.5-8.3-9.5-14.6V72c0-22.1-17.9-40-40-40zM32 260.3c3.1-.7 6.1-1.8 9-3.4l28.7-16.1c9.7-5.5 21.6-5.5 31.4 0l25.5 14.4c9.7 5.5 21.6 5.5 31.4 0l25.5-14.4c9.7-5.5 21.6-5.5 31.4 0l25.5 14.4c9.7 5.5 21.6 5.5 31.4 0l25.5-14.4c9.7-5.5 21.6-5.5 31.4 0l25.5 14.4c9.7 5.5 21.6 5.5 31.4 0L411 240.8c9.7-5.5 21.6-5.5 31.4 0L471 256.9c2.8 1.6 5.8 2.7 9 3.4c5.7 1.2 11.6 .9 17.2-1l9.5-3.3 5.3-1.8 0 1.8c0 11.1-.7 22-2.1 32.7C493.9 414.7 386.3 512 256 512S18.1 414.7 2.1 288.7C.7 278 0 267.1 0 256l0-1.8L5.3 256l9.5 3.3c5.6 1.9 11.5 2.3 17.2 1zm53.3 8.4L56.7 284.8c-6.8 3.8-14.2 6.3-21.8 7.5C52.3 398.8 144.7 480 256 480s203.7-81.2 221.1-187.7c-7.6-1.2-14.9-3.7-21.8-7.5l-28.7-16.1-25.5 14.4c-19.5 11-43.3 11-62.8 0l-25.5-14.4-25.5 14.4c-19.5 11-43.3 11-62.8 0l-25.5-14.4-25.5 14.4c-19.5 11-43.3 11-62.8 0L85.3 268.7zm91 43.3a24 24 0 1 1 0 48 24 24 0 1 1 0-48zm136 24a24 24 0 1 1 48 0 24 24 0 1 1 -48 0zM256 352c35.3 0 64 28.7 64 64v5.3c0 14.7-11.9 26.7-26.7 26.7H218.7c-14.7 0-26.7-11.9-26.7-26.7V416c0-35.3 28.7-64 64-64zm-32 64h64c0-17.7-14.3-32-32-32s-32 14.3-32 32z"/></svg>
